Adwaita++/actions/22/call-stop.svg

<svg height="22" viewBox="0 0 22 22" width="22" xmlns="http://www.w3.org/2000/svg">
  <path d="m14.001953 1.9960938c-6.6167999 0-11.9828999 5.3559499-11.9999999 11.9687502v.0625c0 .54176.43472.96875.96875.96875h3.03125c.55401 0 1-.44599 1-1v-2c0-.55401-.44599-1-1-1h-.46875c.9039-2.5569003 2.91185-4.5648702 5.4687499-5.4687502v.46875c0 .554.446 1 1 1h2c.554 0 1-.446 1-1v-3c0-.5540001-.42392-1-.96875-1z" fill="#4285f4" transform="translate(3 3)"/>
</svg>

<svg xmlns="http://www.w3.org/2000/svg" width="22" height="22" version="1.1" viewBox="0 0 22 22">
 <defs>
  <style id="current-color-scheme" type="text/css">
   .ColorScheme-Text { color:#444444; } .ColorScheme-Highlight { color:#4285f4; }
  </style>
 </defs>
 <path class="ColorScheme-Highlight" d="M 14.001953 1.9960938 C 7.3851531 1.9960938 2.0190531 7.3520437 2.0019531 13.964844 L 2.0019531 14.027344 C 2.0019531 14.569104 2.4366731 14.996094 2.9707031 14.996094 L 6.0019531 14.996094 C 6.5559631 14.996094 7.0019531 14.550104 7.0019531 13.996094 L 7.0019531 11.996094 C 7.0019531 11.442084 6.5559631 10.996094 6.0019531 10.996094 L 5.5332031 10.996094 C 6.4371031 8.4391937 8.4450531 6.4312238 11.001953 5.5273438 L 11.001953 5.9960938 C 11.001953 6.5500938 11.447953 6.9960938 12.001953 6.9960938 L 14.001953 6.9960938 C 14.555953 6.9960938 15.001953 6.5500938 15.001953 5.9960938 L 15.001953 2.9960938 C 15.001953 2.4420937 14.578033 1.9960938 14.033203 1.9960938 L 14.001953 1.9960938 z" transform="translate(3 3)" style="fill:currentColor;"/>
</svg>
